build/img/sprites/87%.svg

<svg width="175" height="62" viewBox="0 0 175 62" fill="none" xmlns="http://www.w3.org/2000/svg">
<path d="M4.04231 52.1824L4.04221 52.1825L4.04918 52.1913C6.19205 54.8836 9.12187 56.9579 12.8159 58.4246C16.5137 59.8928 20.8187 60.6199 25.7204 60.6199C30.6213 60.6199 34.9258 59.893 38.6233 58.4252C42.3705 56.9588 45.3037 54.8836 47.3955 52.1863L47.3985 52.1824C49.4958 49.4228 50.5404 46.1947 50.5404 42.5199C50.5404 38.8956 49.467 35.7926 47.3056 33.241C46.1138 31.7682 44.6503 30.5059 42.9206 29.4513C43.9125 28.6933 44.7889 27.8484 45.5481 26.9156C47.5462 24.473 48.5404 21.5592 48.5404 18.1999C48.5404 14.7389 47.5492 11.7468 45.553 9.25022C43.623 6.76994 40.9331 4.8563 37.5093 3.49693C34.1299 2.08057 30.1964 1.37988 25.7204 1.37988C21.296 1.37988 17.3635 2.08112 13.9328 3.4964C10.5079 4.85602 7.79248 6.76938 5.80996 9.24754L5.80992 9.24751L5.80571 9.25291C3.86356 11.75 2.90039 14.7411 2.90039 18.1999C2.90039 21.5596 3.89479 24.4737 5.89341 26.9165L5.89339 26.9165L5.89701 26.9209C6.66674 27.8403 7.54261 28.6746 8.52326 29.4246C6.77822 30.4849 5.28739 31.7561 4.05561 33.2406L4.05491 33.2414C1.94625 35.794 0.900391 38.8968 0.900391 42.5199C0.900391 46.1947 1.94496 49.4228 4.04231 52.1824ZM31.4897 46.7681L31.4896 46.7681L31.483 46.7735C30.1046 47.9058 28.2025 48.4999 25.7204 48.4999C23.2413 48.4999 21.3091 47.9072 19.8744 46.7708C18.515 45.6525 17.8204 44.0974 17.8204 42.0399C17.8204 40.0385 18.513 38.5073 19.8778 37.3862L19.8792 37.3851C21.3139 36.1978 23.2441 35.5799 25.7204 35.5799C28.1977 35.5799 30.0967 36.1981 31.475 37.3795L31.4822 37.3857L31.4897 37.3916C32.9061 38.515 33.6204 40.045 33.6204 42.0399C33.6204 44.0927 32.9028 45.6474 31.4897 46.7681ZM30.202 14.9054L30.2019 14.9054L30.21 14.9119C31.3485 15.8132 31.9404 17.1225 31.9404 18.9199C31.9404 20.6048 31.378 21.8987 30.2771 22.8584C29.1627 23.7768 27.6605 24.2599 25.7204 24.2599C23.8372 24.2599 22.3602 23.7786 21.2437 22.8584C20.1428 21.8987 19.5804 20.6048 19.5804 18.9199C19.5804 17.115 20.151 15.804 21.2388 14.9054C22.356 13.9825 23.8345 13.4999 25.7204 13.4999C27.6063 13.4999 29.0848 13.9825 30.202 14.9054ZM63.2576 58.8003L62.953 59.4999H63.716H80.996H81.3256L81.4556 59.1969L101.216 13.1169L101.256 13.0226V12.9199V2.99988V2.49988H100.756H54.356H53.856V2.99988V24.1999V24.6999H54.356H67.876H68.376V24.1999V16.0599H81.867L63.2576 58.8003ZM114.157 58.7179L113.623 59.4999H114.57H126.09H126.354L126.503 59.2818L164.743 3.28184L165.277 2.49988H164.33H152.81H152.546L152.397 2.71792L114.157 58.7179ZM106.767 26.4315L106.769 26.4357C108.039 28.8098 109.812 30.6408 112.085 31.916C114.353 33.1881 116.892 33.8199 119.69 33.8199C122.538 33.8199 125.079 33.1894 127.297 31.9147C129.57 30.6386 131.342 28.7803 132.611 26.3554C133.937 23.9229 134.59 21.0654 134.59 17.7999C134.59 14.4831 133.937 11.6227 132.608 9.23986C131.34 6.86997 129.569 5.04158 127.301 3.76735C125.082 2.43806 122.54 1.77988 119.69 1.77988C116.889 1.77988 114.349 2.43943 112.081 3.76597C109.81 5.04101 108.038 6.87127 106.769 9.24406C105.495 11.6259 104.87 14.4845 104.87 17.7999C104.87 21.1157 105.495 23.9988 106.767 26.4315ZM122.648 23.5827L122.643 23.5885L122.639 23.5944C121.866 24.7055 120.918 25.2199 119.77 25.2199C118.619 25.2199 117.61 24.7019 116.728 23.5772C115.922 22.4828 115.47 20.5939 115.47 17.7999C115.47 15.0059 115.922 13.117 116.728 12.0226C117.61 10.8979 118.619 10.3799 119.77 10.3799C120.918 10.3799 121.866 10.8942 122.639 12.0054L122.643 12.0113L122.648 12.0171C123.456 13.1106 123.91 15.0011 123.91 17.7999C123.91 20.5986 123.456 22.4891 122.648 23.5827ZM151.521 58.3134L151.525 58.316C153.794 59.5889 156.36 60.2199 159.21 60.2199C162.058 60.2199 164.599 59.5894 166.816 58.3148C169.088 57.0402 170.86 55.2104 172.129 52.8382C173.457 50.404 174.11 47.5184 174.11 44.1999C174.11 40.8831 173.457 38.0227 172.128 35.6398C170.86 33.27 169.089 31.4416 166.821 30.1674C164.602 28.8381 162.06 28.1799 159.21 28.1799C156.357 28.1799 153.789 28.8391 151.519 30.1675C149.3 31.4435 147.557 33.2738 146.289 35.6441C145.015 38.0259 144.39 40.8845 144.39 44.1999C144.39 47.5157 145.015 50.3988 146.287 52.8315L146.289 52.8357C147.557 55.2067 149.301 57.0373 151.521 58.3134ZM162.168 49.9827C161.34 51.1028 160.36 51.6199 159.21 51.6199C158.119 51.6199 157.135 51.1081 156.248 49.9771C155.442 48.8827 154.99 46.9939 154.99 44.1999C154.99 41.4059 155.442 39.517 156.248 38.4226C157.135 37.2917 158.119 36.7799 159.21 36.7799C160.36 36.7799 161.34 37.2969 162.168 38.4171C162.976 39.5106 163.43 41.4011 163.43 44.1999C163.43 46.9986 162.976 48.8891 162.168 49.9827Z" stroke="#78213A"/>
</svg>

<svg width="175" height="62" viewBox="0 0 175 62" fill="none" xmlns="http://www.w3.org/2000/svg"><path d="M4.042 52.182h0l.007.01c2.143 2.692 5.073 4.766 8.767 6.233 3.698 1.468 8.003 2.195 12.904 2.195s9.206-.727 12.903-2.195c3.748-1.466 6.68-3.541 8.773-6.239l.002-.004c2.098-2.76 3.142-5.987 3.142-9.662 0-3.624-1.073-6.727-3.234-9.279-1.192-1.473-2.656-2.735-4.385-3.79a15.519 15.519 0 002.627-2.535c1.998-2.443 2.992-5.357 2.992-8.716 0-3.461-.99-6.453-2.987-8.95-1.93-2.48-4.62-4.394-8.044-5.753C34.13 2.08 30.196 1.38 25.72 1.38c-4.424 0-8.357.701-11.787 2.116-3.425 1.36-6.14 3.273-8.123 5.752h0l-.004.005C3.864 11.75 2.9 14.74 2.9 18.2c0 3.36.995 6.274 2.993 8.716h0l.004.005c.77.92 1.646 1.754 2.626 2.504-1.745 1.06-3.236 2.331-4.467 3.816h-.001C1.946 35.794.9 38.897.9 42.52c0 3.675 1.045 6.903 3.142 9.662zm27.448-5.414h0l-.007.005c-1.378 1.133-3.28 1.727-5.763 1.727-2.479 0-4.41-.593-5.846-1.73-1.359-1.117-2.054-2.673-2.054-4.73 0-2.002.693-3.533 2.058-4.654h.001c1.435-1.188 3.365-1.806 5.841-1.806 2.478 0 4.377.618 5.755 1.8l.007.006.008.006c1.416 1.123 2.13 2.653 2.13 4.648 0 2.053-.717 3.607-2.13 4.728zm-1.288-31.863h0l.008.007c1.139.901 1.73 2.21 1.73 4.008 0 1.685-.562 2.979-1.663 3.938-1.114.919-2.617 1.402-4.557 1.402-1.883 0-3.36-.481-4.476-1.402-1.101-.96-1.664-2.253-1.664-3.938 0-1.805.571-3.116 1.659-4.015 1.117-.922 2.595-1.405 4.481-1.405 1.886 0 3.365.482 4.482 1.405zM63.258 58.8l-.305.7h18.373l.13-.303 19.76-46.08.04-.094V2.5h-47.4v22.2h14.52v-8.64h13.491L63.257 58.8zm50.899-.082l-.534.782h12.731l.149-.218 38.24-56 .534-.782h-12.731l-.149.218-38.24 56zm-7.39-32.287l.002.005c1.27 2.374 3.043 4.205 5.316 5.48 2.268 1.272 4.807 1.904 7.605 1.904 2.848 0 5.389-.63 7.607-1.905 2.273-1.276 4.045-3.135 5.314-5.56 1.326-2.432 1.979-5.29 1.979-8.555 0-3.317-.653-6.177-1.982-8.56-1.268-2.37-3.039-4.198-5.307-5.473-2.219-1.329-4.761-1.987-7.611-1.987-2.801 0-5.341.66-7.609 1.986-2.271 1.275-4.043 3.105-5.312 5.478-1.274 2.382-1.899 5.24-1.899 8.556 0 3.316.625 6.199 1.897 8.631zm15.881-2.848l-.005.006-.004.005c-.773 1.111-1.721 1.626-2.869 1.626-1.151 0-2.16-.518-3.042-1.643-.806-1.094-1.258-2.983-1.258-5.777s.452-4.683 1.258-5.777c.882-1.125 1.891-1.643 3.042-1.643 1.148 0 2.096.514 2.869 1.625l.004.006.005.006c.808 1.094 1.262 2.984 1.262 5.783 0 2.799-.454 4.69-1.262 5.783zm28.873 34.73l.004.003c2.269 1.273 4.835 1.904 7.685 1.904 2.848 0 5.389-.63 7.606-1.905 2.272-1.275 4.044-3.105 5.313-5.477 1.328-2.434 1.981-5.32 1.981-8.638 0-3.317-.653-6.177-1.982-8.56-1.268-2.37-3.039-4.198-5.307-5.473-2.219-1.329-4.761-1.987-7.611-1.987-2.853 0-5.421.66-7.691 1.988-2.219 1.276-3.962 3.106-5.23 5.476-1.274 2.382-1.899 5.24-1.899 8.556 0 3.316.625 6.199 1.897 8.631l.002.005c1.268 2.37 3.012 4.201 5.232 5.477zm10.647-8.33c-.828 1.12-1.808 1.637-2.958 1.637-1.091 0-2.075-.512-2.962-1.643-.806-1.094-1.258-2.983-1.258-5.777s.452-4.683 1.258-5.777c.887-1.131 1.871-1.643 2.962-1.643 1.15 0 2.13.517 2.958 1.637.808 1.094 1.262 2.984 1.262 5.783 0 2.799-.454 4.69-1.262 5.783z" stroke="#78213A"/></svg>
